src/assets/images/prototype/produits-armoire/4-wc.svg

<svg width="241" height="743" viewBox="0 0 241 743" fill="none" xmlns="http://www.w3.org/2000/svg">
<path d="M222.538 689.224C220.692 710.76 205.361 729.475 197.926 736.141L15.6435 736.141C0.260959 736.141 8.72139 208.521 15.6435 197.753C22.5656 186.986 33.3334 179.294 60.2528 168.527C81.7883 159.912 110.759 132.121 122.552 119.303L182.544 70.8477C187.671 83.41 202.848 117.918 222.538 155.451C247.15 202.368 224.845 662.305 222.538 689.224Z" fill="white" stroke="#81EC40" stroke-width="13"/>
<path d="M114.851 8C121.517 11.5892 136.695 21.5366 144.078 32.612L101.007 54.9166C103.468 48.1483 95.3669 29.5355 91.0085 21.0751L114.851 8Z" fill="white" stroke="#81EC40" stroke-width="13"/>
<path d="M158.162 26.4687L191.004 78.5384L117.168 121.609L88.7103 62.3867C88.7103 62.3867 107.864 42.3867 122.436 34.4277C137.008 26.4687 158.162 26.4687 158.162 26.4687Z" fill="white" stroke="#81EC40" stroke-width="13"/>
</svg>

<svg width="241" height="743" fill="none" xmlns="http://www.w3.org/2000/svg"><path d="M222.538 689.224c-1.846 21.536-17.177 40.251-24.612 46.917H15.644c-15.383 0-6.923-527.62 0-538.388 6.922-10.767 17.69-18.459 44.609-29.226 21.535-8.615 50.506-36.406 62.299-49.224l59.992-48.455c5.127 12.562 20.304 47.07 39.994 84.603 24.612 46.917 2.307 506.854 0 533.773zM114.851 8c6.666 3.59 21.844 13.537 29.227 24.612l-43.071 22.305c2.461-6.769-5.64-25.382-9.999-33.842L114.852 8z" fill="#fff" stroke="#81EC40" stroke-width="13"/><path d="M158.162 26.469l32.842 52.07-73.836 43.07L88.71 62.387s19.154-20 33.726-27.96c14.572-7.958 35.726-7.958 35.726-7.958z" fill="#fff" stroke="#81EC40" stroke-width="13"/></svg>
